X:1
T:ຍັງຮັກນ້ອງຢູ່
T:ເນື້ອຮ້ອງ & ທຳນອງ : ຄຳຫຼ້າ ໜໍ່ແກ້ວ ນັກຮ້ອງຕົ້ນສະບັບ : ບຸນທົງ ວົງສາລີ
T:1963
T:© studiodavong
C:Khamla NOKEO
Z:© studiodavong
%%score ( 1 2 )
L:1/8
Q:1/4=75
M:4/4
K:D
V:1 treble nm="Piano" snm="Pno."
V:2 treble 
V:1
"^Slow Rock""_(Intro) ____________________________________________________________________________________" z (BcB c2) (3(BcB | %1
w: |
"D" (A)FAF A2) (3(FAF |"Em" E2) (DE"A" FAdc) |"Bm" (B3 d"A" cB (3(A)FA) ||"Bm""^A" B FBA Bdcd | %5
w: |||* ບໍ່ ເຄີຍ ບໍ່ ເຄີຍ ຮັກ ໃຜ ເທົ່າ|
 B8 | z FAc"G" BcAB |"D" F8 |"Bm" z B,FA FEFE |"D" D8 |"G" z B,DE FAcB |"A" A8 |:"^B" z FBA Bdcd | %13
w: ນາງ|ບໍ່ ເຄີຍ ຫາ ທາງ ເມີນ ໝາງ ເຈົ້າ|ເລີຍ|ອ້າຍ ຍັງ ຮັກ ດຽວ ໃຈ ດຽວ ເໝືອນ|ເຄີຍ|ຢ່າ ຟັງ ຄົນ ເຢີ້ຍ ເອີ່ຍ ສິນ ນິນ|ທາ|ບໍ່ ເຄີຍ ບໍ່ ເຄີຍ ຄິດ ລວງ ລໍ້|
"Bm" B8 | z FAc"G" BcAB |"D" F8 |"Bm" z B,FA FEFE |"D" D8 |"G" z B,DE FABc |"Bm" B8 || %20
w: ກັນ|ບໍ່ ເຄີຍ ເຫ ຫັນ ສາ ບານ ສັນ|ຍາ|ອ້າຍ ພຽນ ໄຫວ້ ວອນ ຢູ່ ທຸກ ເວ|ລາ|ຢາກ ໃຫ້ ດິນ ຟ້າ ຊ່ວຍ ເປັນ ພະ|ຍານ|
"^C" z BcB"A" cBcA |"F#m" F8 |"Bm" z BAF"B7" BFAF |"Em" E8 |"A" z B,DE FAEF |"D" A8 | %26
w: ຍັງ ຮັກ ຍັງ ຮັກ ຍັງ ຮັກ ນ້ອງ|ຢູ່|ຄິດ ເຖິງ ຍອດ ຊູ້ ຢູ່ ທຸກ ຄືນ|ວັນ|ຢາກ ໃຫ້ ເປັນ ຈິງ ເໝືອນ ດັ່ງ ຄວາມ|ຝັນ|
"F#m" z FAc BcAB |"F#" F8 ||"^D" z FBA Bdcd |"Bm" B8 | z FAc"G" BcAB |"D" F8 |"Bm" z B,FA FEFE | %33
w: ຢາກ ໃຫ້ ວິ ມານ ໂຫ ຣານ ສົມ|ປອງ|ບໍ່ ເຄີຍ ບໍ່ ເຄີຍ ຫຼົງ ຕົວ ຫຼົງ|ໃຈ|ບໍ່ ເຄີຍ ຄິດ ໄປ ໜີ ໄກ ເນື້ອ|ທອງ|ອ້າຍ ຍັງ ຊື່ ຕຣົງ ບໍ່ ຫຼົງ ລືມ|
"D" D8 |"Bm" z B,DE FABc!dacoda! ||1"Bm""A""_(Solo from B)" B8 :|2O"Bm""^E" B8 || e"D" f3 z (Bcd | %38
w: ນ້ອງ|ຢາກ ເປັນ ເຈົ້າ ຂອງ ຢາກ ຄອງ ຄູ່|ນອນ|ນອນ||
"Em" e3 (d)"A" cBAF |"Bm" B8) |"Bm9" !arpeggio![B,Fcf]8!fine! |] %41
w: |||
V:2
 x8 | x8 | x8 | x8 || x8 | x8 | x8 | x8 | x8 | x8 | x8 | x8 |: x8 | x8 | x8 | x8 | x8 | x8 | x8 | %19
 x8 || x8 | x8 | x8 | x8 | x8 | x8 | x8 | x8 || x8 | x8 | x8 | x8 | x8 | x8 | x8 ||1 x8 :|2 %36
 x4 z"_(Coda) _________________________________________________________________" Bcd || x8 | x8 | %39
 x8 | x8 |] %41

